X:1
T:Canonbury, LM
T:Canonbury, LM
T:Robert Alexander Schumann, 1839
T:Public Domain Courtesy of the Cyber Hymnal™
C:Robert Alexander Schumann, 1839
Z:Public Domain
Z:Courtesy of the Cyber Hymnal™
%%score ( 1 2 ) ( 3 4 )
L:1/8
Q:1/4=107
M:4/4
K:G
V:1 treble 
V:2 treble 
V:3 bass 
V:4 bass 
V:1
 D2 | [DB]2 [^DB]2 [EB]2 (cB) | [CA]2 (GA) [B,B]2 D2 | [CE]2 [CF]2 [DG]2 [EA]2 | %4
 [DF]2 [^CE]2 !fermata!D2 (D=C) | [B,B]2 [^DB]2 [EB]2 (cB) | [CA]2 (GA) [B,B]2 D2 | %7
 [CE]2 [CF]2 [DG]2 (BA) | [DG]2 [DF]2 !fermata![DG]2 |] %9
V:2
 D2 | x6 E2 | x2 C2 x D2 x | x8 | x4 D2 x2 | x6 E2 | x2 C2 x D2 x | x6 E2 | x6 |] %9
V:3
 D,2 | [G,B,]2 [F,A,]2 [E,G,]2 (A,G,) | [D,F,]2 (E,F,) [G,,G,]2 [B,,G,]2 | %3
 [C,G,]2 [A,,A,]2 [B,,G,]2 [^C,E,]2 | [D,A,]2 [A,,G,]2 !fermata![D,F,]2 [D,F,]2 | %5
 [G,,G,]2 [B,,F,]2 [E,^G,]2 (A,=G,) | [D,F,]2 (E,F,) [G,,G,]2 [B,,G,]2 | %7
 [C,G,]2 [A,,A,]2 [B,,G,]2 (^G,A,) | [D,B,]2 [D,C]2 !fermata![G,,B,]2 |] %9
V:4
 D,2 | x6 A,,2 | x2 D,2 x4 | x8 | x8 | x6 A,,2 | x2 D,2 x4 | x6 C,2 | x6 |] %9

